UI/Data/SVG/database_solid_24px.svg

<svg xmlns="http://www.w3.org/2000/svg" width="24" height="24" viewBox="0 0 24 24"><rect width="24" height="24" style="fill:none"/><path d="M4,4.53C4,3.67,6.82,2,12,2s8,1.67,8,2.53-2.82,2.54-8,2.54S4,5.39,4,4.53Zm0,9.63v4.31C4,19.33,6.82,21,12,21s8-1.67,8-2.53V14.16c-1.86,1.17-4.94,1.77-8,1.77S5.86,15.33,4,14.16Zm0-7V11.5C4,12.36,6.82,14,12,14s8-1.67,8-2.53V7.18C18.14,8.35,15.06,9,12,9S5.86,8.35,4,7.18Z"/></svg>

<svg width="24" height="24" viewBox="0 0 24 24" fill="none" xmlns="http://www.w3.org/2000/svg">
<path d="M4 4.53C4 3.67 6.82 2 12 2C17.18 2 20 3.67 20 4.53C20 5.39 17.18 7.07 12 7.07C6.82 7.07 4 5.39 4 4.53ZM4 14.16V18.47C4 19.33 6.82 21 12 21C17.18 21 20 19.33 20 18.47V14.16C18.14 15.33 15.06 15.93 12 15.93C8.94 15.93 5.86 15.33 4 14.16ZM4 7.16V11.5C4 12.36 6.82 14 12 14C17.18 14 20 12.33 20 11.47V7.18C18.14 8.35 15.06 9 12 9C8.94 9 5.86 8.35 4 7.18V7.16Z" fill="#0F1621"/>
</svg>
